src/icons/auto.svg

<svg width="24" height="24" viewBox="0 0 24 24" fill="none" xmlns="http://www.w3.org/2000/svg">
<path d="M8.47998 4.17C8.81398 4.744 9.52698 4.968 10.176 4.806C10.7726 4.65757 11.3852 4.58268 12 4.583C12.62 4.583 13.223 4.658 13.799 4.8C14.446 4.959 15.156 4.735 15.49 4.16C15.88 3.492 15.606 2.628 14.86 2.409C13.931 2.13691 12.9679 1.99918 12 2C10.994 2 10.023 2.146 9.10598 2.419C8.36298 2.639 8.09098 3.502 8.47898 4.169L8.47998 4.17Z" fill="#AD1457"/>
<path d="M5.03898 4.772C5.60298 4.237 6.49698 4.432 6.88698 5.103C7.21998 5.675 7.06298 6.395 6.60298 6.872C5.99316 7.50355 5.50019 8.23827 5.14698 9.042C4.90498 9.594 4.38498 10 3.77998 10C2.92598 10 2.28398 9.219 2.58898 8.428C3.12426 7.04264 3.96115 5.79378 5.03898 4.772Z" fill="#AD1457"/>
<path d="M3.19698 12C3.91498 12 4.51698 12.583 4.64098 13.286C5.25398 16.769 8.31598 19.416 12 19.416C15.684 19.416 18.746 16.769 19.359 13.286C19.483 12.583 20.085 12 20.803 12C21.522 12 22.082 12.581 21.99 13.289C21.353 18.203 17.123 22 12 22C6.87698 22 2.64698 18.203 2.00998 13.289C1.91798 12.58 2.47798 12 3.19698 12Z" fill="#AD1457"/>
<path d="M20.203 9.958C21.06 9.958 21.703 9.172 21.393 8.38C20.8522 7.00253 20.0127 5.76209 18.935 4.748C18.371 4.215 17.48 4.412 17.09 5.081C16.757 5.654 16.916 6.376 17.379 6.853C17.9884 7.47981 18.4823 8.20935 18.838 9.008C19.081 9.556 19.6 9.958 20.203 9.958Z" fill="#AD1457"/>
<path d="M7.13298 9.32C6.69098 8.832 7.18598 8.058 7.78998 8.293L12.702 10.203C13.816 10.637 14.24 12.043 13.564 13.058C13.415 13.2888 13.2148 13.4821 12.9789 13.6228C12.743 13.7635 12.4778 13.8479 12.2039 13.8694C11.9301 13.8909 11.655 13.8489 11.4 13.7466C11.145 13.6444 10.9171 13.4847 10.734 13.28L7.13298 9.32Z" fill="#AD1457"/>
</svg>

<svg fill="none" viewBox="0 0 24 24" xmlns="http://www.w3.org/2000/svg"><path d="M8.48 4.17c.334.574 1.047.798 1.696.636A7.539 7.539 0 0 1 12 4.583c.62 0 1.223.075 1.799.217.647.159 1.357-.065 1.691-.64.39-.668.116-1.532-.63-1.751A10.144 10.144 0 0 0 12 2c-1.006 0-1.977.146-2.894.419-.743.22-1.015 1.083-.627 1.75Z" fill="#ffc400"/><path d="M5.039 4.772c.564-.535 1.458-.34 1.848.331.333.572.176 1.292-.284 1.769a7.424 7.424 0 0 0-1.456 2.17c-.242.552-.762.958-1.367.958-.854 0-1.496-.781-1.191-1.572a10.008 10.008 0 0 1 2.45-3.656Z" fill="#ad1457"/><path d="M3.197 12c.718 0 1.32.583 1.444 1.286.613 3.483 3.675 6.13 7.359 6.13s6.746-2.647 7.359-6.13c.124-.703.726-1.286 1.444-1.286.719 0 1.279.581 1.187 1.289C21.353 18.203 17.123 22 12 22s-9.353-3.797-9.99-8.711C1.918 12.58 2.478 12 3.197 12Z" fill="#cfd8dc"/><path d="M20.203 9.958c.857 0 1.5-.786 1.19-1.578a10.01 10.01 0 0 0-2.458-3.632c-.564-.533-1.455-.336-1.845.333-.333.573-.174 1.295.289 1.772a7.423 7.423 0 0 1 1.459 2.155c.243.548.762.95 1.365.95Z" fill="#ff5252"/><path d="M7.133 9.32c-.442-.488.053-1.262.657-1.027l4.912 1.91c1.114.434 1.538 1.84.862 2.855a1.785 1.785 0 0 1-2.83.222l-3.6-3.96Z" fill="#cfd8dc"/></svg>
